packages/ui-solid/icons/exchange_circle_fill_32.svg

<svg width="32" height="32" viewBox="0 0 32 32" fill="none" xmlns="http://www.w3.org/2000/svg">
<path fill-rule="evenodd" clip-rule="evenodd" d="M30 16C30 23.732 23.732 30 16 30C8.26801 30 2 23.732 2 16C2 8.26801 8.26801 2 16 2C23.732 2 30 8.26801 30 16ZM12.8895 9.70108C13.2767 9.30725 13.2713 8.67411 12.8775 8.28692C12.4836 7.89972 11.8505 7.9051 11.4633 8.29892L8.28692 11.5297C7.90436 11.9188 7.90436 12.5427 8.28692 12.9318L11.4633 16.1626C11.8505 16.5564 12.4836 16.5618 12.8775 16.1746C13.2713 15.7874 13.2767 15.1543 12.8895 14.7605L11.3855 13.2308L18 13.2308C18.5523 13.2308 19 12.7831 19 12.2308C19 11.6785 18.5523 11.2308 18 11.2308H11.3855L12.8895 9.70108ZM20.5367 15.8374C20.1495 15.4436 19.5164 15.4382 19.1225 15.8254C18.7287 16.2126 18.7233 16.8457 19.1105 17.2395L20.6145 18.7692L14 18.7692C13.4477 18.7692 13 19.2169 13 19.7692C13 20.3215 13.4477 20.7692 14 20.7692L20.6145 20.7692L19.1105 22.2989C18.7233 22.6927 18.7287 23.3259 19.1225 23.7131C19.5164 24.1003 20.1495 24.0949 20.5367 23.7011L23.7131 20.4703C24.0956 20.0812 24.0956 19.4573 23.7131 19.0682L20.5367 15.8374Z" fill="#007AFF"/>
</svg>

<svg xmlns="http://www.w3.org/2000/svg" width="32" height="32" fill="none"><path fill="currentColor" fill-rule="evenodd" d="M30 16c0 7.732-6.268 14-14 14S2 23.732 2 16 8.268 2 16 2s14 6.268 14 14M12.89 9.701A1 1 0 0 0 11.462 8.3l-3.176 3.23a1 1 0 0 0 0 1.403l3.176 3.23a1 1 0 0 0 1.427-1.401l-1.505-1.53H18a1 1 0 1 0 0-2h-6.614zm7.647 6.136a1 1 0 0 0-1.427 1.402l1.505 1.53H14a1 1 0 1 0 0 2h6.615L19.11 22.3a1 1 0 0 0 1.427 1.402l3.176-3.23a1 1 0 0 0 0-1.403z" clip-rule="evenodd"/></svg>
